app/src/main/assets/3dlut_01.cube
#Created by: Adobe Photoshop Export Color Lookup Plugin
TITLE "1241667404168_.pic.jpg"
#LUT size
LUT_3D_SIZE 6
#data domain
DOMAIN_MIN 0.0 0.0 0.0
DOMAIN_MAX 1.0 1.0 1.0
#LUT data points
0.404297 0.404297 0.404297
0.415314 0.415314 0.415314
0.402374 0.402374 0.402374
0.395752 0.395752 0.395752
0.398315 0.398315 0.398315
0.403351 0.403351 0.403351
0.557739 0.557739 0.557739
0.570435 0.570435 0.570435
0.545044 0.545044 0.545044
0.494781 0.494781 0.494781
0.387787 0.387787 0.387787
0.398804 0.398804 0.398804
0.398102 0.398102 0.398102
0.398102 0.398102 0.398102
0.390533 0.390533 0.390533
0.395081 0.395081 0.395081
0.398804 0.398804 0.398804
0.449677 0.449677 0.449677
0.403168 0.403168 0.403168
0.410797 0.410797 0.410797
0.410797 0.410797 0.410797
0.482513 0.482513 0.482513
0.482513 0.482513 0.482513
0.511383 0.511383 0.511383
0.618225 0.618225 0.618225
0.458923 0.458923 0.458923
0.373596 0.373566 0.373596
0.366302 0.366302 0.366302
0.366302 0.366302 0.366302
0.442749 0.442749 0.442749
0.441467 0.441467 0.441467
0.473938 0.473938 0.473938
0.465851 0.465851 0.465851
0.461487 0.461487 0.461487
0.473938 0.473938 0.473938
0.481995 0.481995 0.481995
0.544556 0.544556 0.544556
0.514740 0.514740 0.514740
0.458527 0.458527 0.458527
0.430237 0.430237 0.430237
0.399963 0.399963 0.399963
0.376862 0.376862 0.376862
0.536652 0.536652 0.536652
0.545044 0.545044 0.545044
0.528351 0.528351 0.528351
0.511383 0.511383 0.511383
0.494781 0.494781 0.494781
0.378937 0.378937 0.378937
0.390533 0.390533 0.390533
0.401855 0.401855 0.401855
0.390533 0.390533 0.390533
0.376373 0.376373 0.376373
0.387543 0.387543 0.387543
0.391235 0.391235 0.391235
0.387787 0.387787 0.387787
0.387787 0.387787 0.387787
0.403168 0.403168 0.403168
0.434143 0.434143 0.434143
0.457916 0.457916 0.457947
0.515533 0.515533 0.515533
0.638123 0.638123 0.638123
0.604095 0.604095 0.604095
0.506683 0.506683 0.506683
0.414642 0.414642 0.414642
0.376648 0.376648 0.376648
0.387787 0.387787 0.387787
0.449524 0.449493 0.449524
0.490234 0.490234 0.490234
0.473938 0.473938 0.473938
0.465851 0.465851 0.465851
0.469788 0.469788 0.469788
0.473938 0.473938 0.473938
0.552673 0.552673 0.552673
0.581787 0.581787 0.581787
0.599854 0.599854 0.599854
0.609924 0.609924 0.609924
0.575684 0.575684 0.575684
0.540588 0.540588 0.540588
0.549286 0.549286 0.549286
0.519684 0.519684 0.519684
0.519684 0.519684 0.519684
0.523804 0.523804 0.523804
0.494781 0.494781 0.494781
0.485046 0.485046 0.485046
0.405731 0.405731 0.405731
0.421173 0.421173 0.421173
0.409576 0.409576 0.409576
0.398804 0.398804 0.398804
0.358154 0.358154 0.358154
0.380096 0.380096 0.380096
0.358368 0.358368 0.358368
0.387787 0.387787 0.387787
0.410797 0.410797 0.410797
0.426270 0.426270 0.426270
0.438049 0.438049 0.438049
0.490692 0.490692 0.490692
0.604095 0.604095 0.604095
0.722717 0.722717 0.722717
0.693329 0.693329 0.693329
0.564789 0.564789 0.564789
0.432861 0.432861 0.432861
0.409576 0.409576 0.409576
0.475403 0.475372 0.475403
0.479462 0.479462 0.479462
0.466980 0.466980 0.466980
0.475403 0.475372 0.475403
0.471344 0.471344 0.471344
0.466980 0.466980 0.466980
0.664856 0.664856 0.664856
0.613617 0.613617 0.613617
0.630890 0.630859 0.630890
0.643707 0.643707 0.643707
0.647949 0.647949 0.647949
0.643707 0.643707 0.643707
0.556458 0.556458 0.556458
0.556458 0.556458 0.556458
0.527008 0.527008 0.527008
0.549500 0.549500 0.549500
0.549500 0.549500 0.549500
0.557739 0.557739 0.557739
0.410797 0.410797 0.410797
0.418518 0.418518 0.418518
0.414642 0.414642 0.414642
0.414917 0.414917 0.414917
0.388000 0.388000 0.388000
0.347687 0.347656 0.347687
0.344208 0.344208 0.344208
0.376648 0.376648 0.376648
0.399323 0.399323 0.399323
0.437317 0.437317 0.437317
0.429138 0.429138 0.429138
0.449219 0.449219 0.449219
0.714661 0.714661 0.714661
0.758728 0.758728 0.758728
0.799591 0.799591 0.799591
0.732056 0.732025 0.732056
0.544556 0.544556 0.544556
0.498688 0.498688 0.498688
0.457458 0.457458 0.457458
0.473633 0.473633 0.473633
0.469604 0.469574 0.469604
0.461487 0.461487 0.461487
0.465546 0.465546 0.465546
0.465546 0.465546 0.465546
0.736115 0.736115 0.736115
0.732056 0.732025 0.732056
0.715546 0.715546 0.715546
0.698822 0.698792 0.698822
0.711426 0.711426 0.711426
0.736115 0.736115 0.736115
0.514435 0.514435 0.514435
0.506195 0.506165 0.506195
0.518646 0.518646 0.518646
0.549500 0.549500 0.549500
0.557953 0.557953 0.557953
0.566132 0.566132 0.566132
0.376648 0.376648 0.376648
0.418518 0.418518 0.418518
0.406891 0.406891 0.406891
0.429962 0.429932 0.429962
0.449677 0.449677 0.449677
0.365326 0.365326 0.365326
0.340637 0.340637 0.340637
0.354797 0.354797 0.354797
0.410797 0.410797 0.410797
0.421356 0.421356 0.421356
0.421356 0.421356 0.421356
0.409790 0.409790 0.409790
0.715790 0.715790 0.715790
0.769043 0.769043 0.769043
0.812347 0.812347 0.812347
0.753204 0.753204 0.753204
0.767029 0.767029 0.767029
0.689392 0.689392 0.689392
0.445465 0.445465 0.445465
0.465546 0.465546 0.465546
0.445465 0.445465 0.445465
0.449524 0.449493 0.449524
0.445465 0.445465 0.445465
0.445465 0.445465 0.445465
0.664856 0.664856 0.664856
0.685944 0.685944 0.685944
0.732056 0.732025 0.732056
0.740265 0.740265 0.740265
0.723816 0.723785 0.723816
0.736115 0.736115 0.736115
0.501831 0.501831 0.501831
0.465027 0.465027 0.465027
0.477203 0.477203 0.477203
0.473145 0.473145 0.473145
0.456940 0.456940 0.456940
0.512421 0.512421 0.512421
0.384094 0.384094 0.384094
0.399323 0.399323 0.399323
0.414642 0.414642 0.414642
0.453735 0.453735 0.453735
0.414429 0.414429 0.414429
0.441772 0.441772 0.441772
0.319885 0.319885 0.319885
0.333557 0.333557 0.333557
0.406891 0.406891 0.406891
0.422363 0.422363 0.422363
0.422363 0.422363 0.422363
0.430237 0.430237 0.430237
0.605133 0.605133 0.605133
0.778320 0.778320 0.778320
0.811890 0.811890 0.811890
0.746674 0.746643 0.746674
0.755798 0.755798 0.755798
0.734039 0.734039 0.734039
0.433655 0.433655 0.433655
0.449524 0.449493 0.449524
0.437561 0.437561 0.437561
0.441467 0.441467 0.441467
0.433655 0.433655 0.433655
0.425568 0.425568 0.425568
