app/src/main/assets/3dlut_01.cube
#Created by: Adobe Photoshop Export Color Lookup Plugin
TITLE "1241667404168_.pic.jpg"
#LUT size
LUT_3D_SIZE 16
#data domain
DOMAIN_MIN 0.0 0.0 0.0
DOMAIN_MAX 1.0 1.0 1.0
#LUT data points
0.404297 0.404297 0.404297
0.414429 0.414429 0.414429
0.414429 0.414429 0.414429
0.415314 0.415314 0.415314
0.415314 0.415314 0.415314
0.410065 0.410065 0.410065
0.402374 0.402374 0.402374
0.396027 0.396027 0.396027
0.392212 0.392212 0.392212
0.395752 0.395752 0.395752
0.395752 0.395752 0.395752
0.394592 0.394592 0.394592
0.398315 0.398315 0.398315
0.399567 0.399567 0.399567
0.399567 0.399567 0.399567
0.403351 0.403351 0.403351
0.609497 0.609497 0.609497
0.626434 0.626434 0.626434
0.626434 0.626434 0.626434
0.639435 0.639435 0.639435
0.664856 0.664856 0.664856
0.690216 0.690216 0.690216
0.698822 0.698792 0.698822
0.707153 0.707153 0.707153
0.715546 0.715546 0.715546
0.740265 0.740265 0.740265
0.715546 0.715546 0.715546
0.707153 0.707153 0.707153
0.698822 0.698792 0.698822
0.690216 0.690216 0.690216
0.707153 0.707153 0.707153
0.736115 0.736115 0.736115
0.571472 0.571472 0.571472
0.599030 0.599030 0.599030
0.611725 0.611725 0.611725
0.616089 0.616089 0.616089
0.603302 0.603302 0.603302
0.590576 0.590576 0.590576
0.573578 0.573578 0.573578
0.529053 0.529053 0.529053
0.483337 0.483337 0.483337
0.485352 0.485352 0.485352
0.543732 0.543732 0.543732
0.549286 0.549286 0.549286
0.553467 0.553467 0.553467
0.591400 0.591400 0.591400
0.591400 0.591400 0.591400
0.596863 0.596863 0.596863
0.557739 0.557739 0.557739
0.519684 0.519684 0.519684
0.549286 0.549286 0.549286
0.570435 0.570435 0.570435
0.557739 0.557739 0.557739
0.545044 0.545044 0.545044
0.545044 0.545044 0.545044
0.536652 0.536652 0.536652
0.528351 0.528351 0.528351
0.494781 0.494781 0.494781
0.442078 0.442078 0.442078
0.380249 0.380249 0.380249
0.387787 0.387787 0.387787
0.453735 0.453735 0.453735
0.461792 0.461792 0.461792
0.398804 0.398804 0.398804
0.531158 0.531158 0.531158
0.473145 0.473145 0.473145
0.465027 0.465027 0.465027
0.453003 0.453003 0.453003
0.440948 0.440948 0.440948
0.440948 0.440948 0.440948
0.453003 0.453003 0.453003
0.473145 0.473145 0.473145
0.493622 0.493622 0.493622
0.489410 0.489410 0.489410
0.460999 0.460999 0.460999
0.448975 0.448975 0.448975
0.444977 0.444977 0.444977
0.449982 0.449982 0.449982
0.474457 0.474457 0.474457
0.479156 0.479156 0.479156
0.512634 0.512634 0.512634
0.487915 0.487915 0.487915
0.479645 0.479645 0.479645
0.483826 0.483826 0.483826
0.504333 0.504333 0.504333
0.516846 0.516846 0.516846
0.512634 0.512634 0.512634
0.504333 0.504333 0.504333
0.500183 0.500183 0.500183
0.503357 0.503357 0.503357
0.503357 0.503357 0.503357
0.503357 0.503357 0.503357
0.478668 0.478668 0.478668
0.430450 0.430450 0.430450
0.395569 0.395569 0.395569
0.414642 0.414642 0.414642
0.398102 0.398102 0.398102
0.386871 0.386841 0.386871
0.401855 0.401855 0.401855
0.398102 0.398102 0.398102
0.401855 0.401855 0.401855
0.405731 0.405731 0.405731
0.390533 0.390533 0.390533
0.390533 0.390533 0.390533
0.417297 0.417297 0.417297
0.395081 0.395081 0.395081
0.391235 0.391235 0.391235
0.391235 0.391235 0.391235
0.398804 0.398804 0.398804
0.414429 0.414429 0.414429
0.433838 0.433838 0.433838
0.449677 0.449677 0.449677
0.372955 0.372925 0.372955
0.372955 0.372925 0.372955
0.384094 0.384094 0.384094
0.395264 0.395264 0.395264
0.403168 0.403168 0.403168
0.399323 0.399323 0.399323
0.403168 0.403168 0.403168
0.414642 0.414642 0.414642
0.426270 0.426270 0.426270
0.437866 0.437866 0.437866
0.426056 0.426056 0.426056
0.449677 0.449677 0.449677
0.474152 0.474152 0.474152
0.457764 0.457764 0.457764
0.461792 0.461792 0.461792
0.461792 0.461792 0.461792
0.442078 0.442078 0.442078
0.462280 0.462280 0.462280
0.462280 0.462280 0.462280
0.449982 0.449982 0.449982
0.430237 0.430237 0.430237
0.406891 0.406891 0.406891
0.384094 0.384094 0.384094
0.372955 0.372925 0.372955
0.369202 0.369202 0.369202
0.351227 0.351227 0.351227
0.362030 0.362030 0.362030
0.362030 0.362030 0.362030
0.340637 0.340637 0.340637
0.330048 0.330048 0.330048
0.340637 0.340637 0.340637
0.347687 0.347656 0.347687
0.403168 0.403168 0.403168
0.406891 0.406891 0.406891
0.403168 0.403168 0.403168
0.410797 0.410797 0.410797
0.422363 0.422363 0.422363
0.422363 0.422363 0.422363
0.410797 0.410797 0.410797
0.418518 0.418518 0.418518
0.434143 0.434143 0.434143
0.482513 0.482513 0.482513
0.462280 0.462280 0.462280
0.466248 0.466248 0.466248
0.482513 0.482513 0.482513
0.490692 0.490692 0.490692
0.511383 0.511383 0.511383
0.511383 0.511383 0.511383
0.316620 0.316620 0.316620
0.337006 0.337006 0.337006
0.344208 0.344208 0.344208
0.344208 0.344208 0.344208
0.354797 0.354797 0.354797
0.384094 0.384094 0.384094
0.422363 0.422363 0.422363
0.434143 0.434143 0.434143
0.422363 0.422363 0.422363
0.438049 0.438049 0.438049
0.454010 0.454010 0.454010
0.457916 0.457916 0.457947
0.434143 0.434143 0.434143
0.418518 0.418518 0.418518
0.434143 0.434143 0.434143
0.454010 0.454010 0.454010
0.318604 0.318604 0.318604
0.315186 0.315186 0.315186
0.315186 0.315186 0.315186
0.318604 0.318604 0.318604
0.318604 0.318604 0.318604
0.315186 0.315186 0.315186
0.318604 0.318604 0.318604
0.339142 0.339142 0.339142
0.364227 0.364227 0.364227
0.365326 0.365326 0.365326
0.376373 0.376373 0.376373
0.398804 0.398804 0.398804
0.433838 0.433838 0.433838
0.494598 0.494598 0.494598
0.561646 0.561646 0.561646
0.595612 0.595612 0.595612
0.618225 0.618225 0.618225
0.562683 0.562653 0.562683
0.495605 0.495605 0.495605
0.458923 0.458923 0.458923
0.487427 0.487427 0.487427
0.427032 0.427032 0.427032
0.373596 0.373566 0.373596
0.407684 0.407684 0.407684
0.373596 0.373566 0.373596
0.366302 0.366302 0.366302
0.344879 0.344849 0.344879
0.351868 0.351868 0.351868
0.366302 0.366302 0.366302
0.359009 0.358978 0.359009
0.377289 0.377289 0.377289
0.442749 0.442749 0.442749
0.417694 0.417694 0.417694
0.430756 0.430756 0.430756
0.466797 0.466797 0.466797
0.552673 0.552673 0.552673
0.684631 0.684631 0.684631
0.799164 0.799133 0.799164
0.841034 0.841003 0.841034
0.809753 0.809753 0.809753
0.766266 0.766266 0.766266
0.800354 0.800354 0.800354
0.784668 0.784668 0.784668
0.791534 0.791534 0.791534
0.791534 0.791534 0.791534
0.746857 0.746857 0.746857
0.671783 0.671783 0.671783
0.590912 0.590912 0.590912
0.462555 0.462555 0.462555
0.486938 0.486938 0.486938
0.474609 0.474609 0.474609
0.458527 0.458527 0.458527
0.462555 0.462555 0.462555
0.470581 0.470581 0.470581
0.474609 0.474609 0.474609
0.470581 0.470581 0.470581
0.462555 0.462555 0.462555
0.463226 0.463226 0.463226
0.463226 0.463226 0.463226
0.463226 0.463226 0.463226
0.463226 0.463226 0.463226
0.463226 0.463226 0.463226
0.463226 0.463226 0.463226
0.467590 0.467590 0.467590
0.441467 0.441467 0.441467
0.486145 0.486145 0.486145
0.481995 0.481995 0.481995
0.473938 0.473938 0.473938
0.465851 0.465851 0.465851
0.461487 0.461487 0.461487
0.465851 0.465851 0.465851
0.473938 0.473938 0.473938
0.477905 0.477875 0.477905
0.461487 0.461487 0.461487
0.465851 0.465851 0.465851
0.473938 0.473938 0.473938
0.473938 0.473938 0.473938
0.473938 0.473938 0.473938
0.473938 0.473938 0.473938
0.481995 0.481995 0.481995
0.402649 0.402649 0.402649
0.439026 0.439026 0.439026
0.427032 0.427032 0.427032
0.410797 0.410797 0.410797
0.395569 0.395569 0.395569
0.390076 0.390076 0.390076
0.390076 0.390076 0.390076
0.395264 0.395264 0.395264
0.403168 0.403168 0.403168
0.407379 0.407379 0.407379
0.384735 0.384735 0.384735
0.384735 0.384735 0.384735
0.407379 0.407379 0.407379
0.414917 0.414917 0.414917
0.395752 0.395752 0.395752
0.395752 0.395752 0.395752
0.549805 0.549805 0.549805
0.583893 0.583893 0.583893
0.588165 0.588165 0.588165
0.579681 0.579681 0.579681
0.600861 0.600861 0.600861
0.652130 0.652130 0.652130
0.664856 0.664856 0.664856
0.647949 0.647949 0.647949
0.639435 0.639435 0.639435
0.694336 0.694336 0.694336
0.681732 0.681702 0.681732
0.694336 0.694336 0.694336
0.698822 0.698792 0.698822
0.681732 0.681702 0.681732
0.681732 0.681702 0.681732
0.707153 0.707153 0.707153
0.590576 0.590576 0.590576
0.601166 0.601166 0.601166
0.566986 0.566956 0.566986
0.575470 0.575470 0.575470
0.571136 0.571136 0.571136
0.533264 0.533264 0.533264
0.529053 0.529053 0.529053
0.482300 0.482269 0.482300
0.376648 0.376648 0.376648
0.413422 0.413422 0.413422
0.493622 0.493622 0.493622
0.552185 0.552185 0.552185
0.548035 0.548004 0.548035
0.560608 0.560608 0.560608
0.607605 0.607605 0.607605
0.622467 0.622467 0.622467
0.545044 0.545044 0.545044
0.536652 0.536652 0.536652
0.536652 0.536652 0.536652
0.536652 0.536652 0.536652
0.536652 0.536652 0.536652
0.540894 0.540894 0.540894
0.540894 0.540894 0.540894
0.545044 0.545044 0.545044
0.545044 0.545044 0.545044
0.498901 0.498901 0.498901
0.511383 0.511383 0.511383
0.474457 0.474457 0.474457
0.410797 0.410797 0.410797
0.393799 0.393799 0.393799
0.416992 0.416992 0.416992
0.398804 0.398804 0.398804
0.501831 0.501831 0.501831
0.477203 0.477203 0.477203
0.453003 0.453003 0.453003
0.432861 0.432861 0.432861
0.428955 0.428955 0.428955
0.444977 0.444977 0.444977
0.456940 0.456940 0.456940
0.456940 0.456940 0.456940
0.444977 0.444977 0.444977
0.428955 0.428955 0.428955
0.444977 0.444977 0.444977
0.448975 0.448975 0.448975
0.448975 0.448975 0.448975
0.458923 0.458923 0.458923
0.450989 0.450989 0.450989
0.439026 0.439026 0.439026
0.500183 0.500183 0.500183
0.496094 0.496094 0.496094
0.492004 0.492004 0.492004
0.504333 0.504333 0.504333
0.512634 0.512634 0.512634
0.512634 0.512634 0.512634
0.525116 0.525116 0.525116
0.529327 0.529327 0.529327
0.508514 0.508514 0.508514
0.519470 0.519470 0.519470
0.515228 0.515228 0.515228
0.502777 0.502777 0.502777
0.482300 0.482269 0.482300
0.457764 0.457764 0.457764
0.437866 0.437866 0.437866
0.426056 0.426056 0.426056
0.383148 0.383148 0.383148
0.371796 0.371796 0.371796
0.383148 0.383148 0.383148
0.409576 0.409576 0.409576
0.413422 0.413422 0.413422
0.398102 0.398102 0.398102
0.401855 0.401855 0.401855
0.413422 0.413422 0.413422
0.401855 0.401855 0.401855
0.387543 0.387543 0.387543
0.372772 0.372772 0.372772
0.365326 0.365326 0.365326
0.380096 0.380096 0.380096
0.402649 0.402649 0.402649
0.422180 0.422180 0.422180
0.441772 0.441772 0.441772
0.365631 0.365631 0.365631
0.372955 0.372925 0.372955
0.365631 0.365631 0.365631
0.362030 0.362030 0.362030
0.372955 0.372925 0.372955
0.384094 0.384094 0.384094
0.399323 0.399323 0.399323
0.422363 0.422363 0.422363
0.442078 0.442078 0.442078
0.443237 0.443237 0.443237
0.443237 0.443237 0.443237
0.440948 0.440948 0.440948
0.444977 0.444977 0.444977
0.440948 0.440948 0.440948
0.440948 0.440948 0.440948
0.436768 0.436768 0.436768
0.503052 0.503052 0.503052
0.454010 0.454010 0.454010
0.442078 0.442078 0.442078
0.438049 0.438049 0.438049
0.445984 0.445984 0.445984
0.430237 0.430237 0.430237
0.399323 0.399323 0.399323
0.387787 0.387787 0.387787
0.399323 0.399323 0.399323
0.384094 0.384094 0.384094
0.372955 0.372925 0.372955
0.376648 0.376648 0.376648
0.369202 0.369202 0.369202
0.344208 0.344208 0.344208
0.340637 0.340637 0.340637
0.351227 0.351227 0.351227
0.387787 0.387787 0.387787
0.391541 0.391541 0.391541
0.391541 0.391541 0.391541
0.387787 0.387787 0.387787
0.380249 0.380249 0.380249
0.387787 0.387787 0.387787
0.410797 0.410797 0.410797
0.430237 0.430237 0.430237
0.434143 0.434143 0.434143
0.422363 0.422363 0.422363
0.445984 0.445984 0.445984
0.474457 0.474457 0.474457
0.498901 0.498901 0.498901
0.515533 0.515533 0.515533
0.523804 0.523804 0.523804
0.511383 0.511383 0.511383
0.316620 0.316620 0.316620
0.323212 0.323212 0.323212
0.337006 0.337006 0.337006
0.344208 0.344208 0.344208
0.344208 0.344208 0.344208
0.347687 0.347656 0.347687
0.372955 0.372925 0.372955
0.422363 0.422363 0.422363
0.462280 0.462280 0.462280
0.439026 0.439026 0.439026
0.446930 0.446930 0.446930
0.446930 0.446930 0.446930
0.443024 0.443024 0.443024
0.450989 0.450989 0.450989
0.458923 0.458923 0.458923
0.450989 0.450989 0.450989
0.335693 0.335693 0.335693
0.315186 0.315186 0.315186
0.315186 0.315186 0.315186
0.318604 0.318604 0.318604
0.321960 0.321960 0.321960
0.318604 0.318604 0.318604
0.318604 0.318604 0.318604
0.332245 0.332245 0.332245
0.353485 0.353485 0.353485
0.357971 0.357971 0.357971
0.402649 0.402649 0.402649
0.445770 0.445770 0.445770
0.457764 0.457764 0.457764
0.469788 0.469788 0.469788
0.506989 0.506989 0.506989
0.552948 0.552948 0.552948
0.588165 0.588165 0.588165
0.554291 0.554291 0.554291
0.554291 0.554291 0.554291
0.537445 0.537415 0.537445
0.503784 0.503784 0.503784
0.458923 0.458923 0.458923
0.427032 0.427032 0.427032
0.415314 0.415314 0.415314
0.411530 0.411530 0.411530
0.388733 0.388733 0.388733
0.351868 0.351868 0.351868
0.344879 0.344849 0.344879
0.366302 0.366302 0.366302
0.377289 0.377289 0.377289
0.380890 0.380890 0.380890
0.419281 0.419281 0.419281
0.445251 0.445251 0.445251
0.445251 0.445251 0.445251
0.410065 0.410065 0.410065
0.402374 0.402374 0.402374
0.453430 0.453430 0.453430
0.537109 0.537109 0.537109
0.634949 0.634949 0.634949
0.739014 0.739014 0.739014
0.818390 0.818359 0.818390
0.836151 0.836151 0.836151
0.770264 0.770264 0.770264
0.672058 0.672058 0.672058
0.578339 0.578339 0.578339
0.511597 0.511597 0.511597
0.462555 0.462555 0.462555
0.417511 0.417511 0.417511
0.442535 0.442535 0.442535
0.478668 0.478668 0.478668
0.474609 0.474609 0.474609
0.470581 0.470581 0.470581
0.466553 0.466522 0.466553
0.466553 0.466522 0.466553
0.466553 0.466522 0.466553
0.470581 0.470581 0.470581
0.470581 0.470581 0.470581
0.467590 0.467590 0.467590
0.467590 0.467590 0.467590
0.467590 0.467590 0.467590
0.467590 0.467590 0.467590
0.467590 0.467590 0.467590
0.467590 0.467590 0.467590
0.467590 0.467590 0.467590
0.449524 0.449493 0.449524
0.486145 0.486145 0.486145
0.481995 0.481995 0.481995
0.477905 0.477875 0.477905
0.473938 0.473938 0.473938
0.469788 0.469788 0.469788
0.465851 0.465851 0.465851
0.465851 0.465851 0.465851
0.465851 0.465851 0.465851
0.465851 0.465851 0.465851
0.465851 0.465851 0.465851
0.465851 0.465851 0.465851
0.469788 0.469788 0.469788
0.469788 0.469788 0.469788
0.473938 0.473938 0.473938
0.473938 0.473938 0.473938
0.461212 0.461212 0.461212
0.476929 0.476929 0.476929
0.468811 0.468811 0.468811
0.449982 0.449982 0.449982
0.430237 0.430237 0.430237
0.415314 0.415314 0.415314
0.407684 0.407684 0.407684
0.405731 0.405731 0.405731
0.405731 0.405731 0.405731
0.399323 0.399323 0.399323
0.380554 0.380554 0.380554
0.376862 0.376862 0.376862
0.395569 0.395569 0.395569
0.399109 0.399109 0.399109
0.387787 0.387787 0.387787
0.387543 0.387543 0.387543
0.502777 0.502777 0.502777
0.506989 0.506989 0.506989
0.527863 0.527863 0.527863
0.536133 0.536133 0.536133
0.548737 0.548737 0.548737
0.574341 0.574341 0.574341
0.574341 0.574341 0.574341
0.561432 0.561401 0.561432
0.570129 0.570129 0.570129
0.616821 0.616821 0.616821
0.612579 0.612579 0.612579
0.638428 0.638428 0.638428
0.663910 0.663910 0.663910
0.655365 0.655365 0.655365
0.659576 0.659576 0.659576
0.684937 0.684937 0.684967
0.596130 0.596130 0.596130
0.582855 0.582855 0.582855
0.557434 0.557434 0.557434
0.568787 0.568787 0.568787
0.564606 0.564606 0.564606
0.535065 0.535065 0.535065
0.539276 0.539276 0.539276
0.515533 0.515533 0.515533
0.426270 0.426270 0.426270
0.387787 0.387787 0.387787
0.503052 0.503052 0.503052
0.600342 0.600342 0.600342
0.600342 0.600342 0.600342
0.578857 0.578857 0.578857
0.591644 0.591614 0.591644
0.607330 0.607330 0.607330
0.532501 0.532471 0.532501
0.545044 0.545044 0.545044
0.545044 0.545044 0.545044
0.545044 0.545044 0.545044
0.540894 0.540894 0.540894
0.536652 0.536652 0.536652
0.536652 0.536652 0.536652
0.532501 0.532471 0.532501
0.532501 0.532471 0.532501
0.511383 0.511383 0.511383
0.519684 0.519684 0.519684
0.498901 0.498901 0.498901
0.449982 0.449982 0.449982
0.420898 0.420898 0.420898
0.409271 0.409271 0.409271
0.369080 0.369080 0.369080
0.501831 0.501831 0.501831
0.460999 0.460999 0.460999
0.473145 0.473145 0.473145
0.481293 0.481293 0.481293
0.481293 0.481293 0.481293
0.473145 0.473145 0.473145
0.473145 0.473145 0.473145
0.481293 0.481293 0.481293
0.489410 0.489410 0.489410
0.456940 0.456940 0.456940
0.469116 0.469116 0.469116
0.465027 0.465027 0.465027
0.456940 0.456940 0.456940
0.458923 0.458923 0.458923
0.443024 0.443024 0.443024
0.423157 0.423157 0.423157
0.504333 0.504333 0.504333
0.483826 0.483826 0.483826
0.479645 0.479645 0.479645
0.487915 0.487915 0.487915
0.492004 0.492004 0.492004
0.496094 0.496094 0.496094
0.504333 0.504333 0.504333
0.504333 0.504333 0.504333
0.487915 0.487915 0.487915
0.486328 0.486328 0.486328
0.490387 0.490387 0.490387
0.494598 0.494598 0.494598
0.490387 0.490387 0.490387
0.482300 0.482269 0.482300
0.469788 0.469788 0.469788
0.457764 0.457764 0.457764
0.386871 0.386841 0.386871
0.405731 0.405731 0.405731
0.405731 0.405731 0.405731
0.417297 0.417297 0.417297
0.405731 0.405731 0.405731
0.390533 0.390533 0.390533
0.405731 0.405731 0.405731
0.432861 0.432861 0.432861
0.428955 0.428955 0.428955
0.387543 0.387543 0.387543
0.376373 0.376373 0.376373
0.372772 0.372772 0.372772
0.387543 0.387543 0.387543
0.402649 0.402649 0.402649
0.406525 0.406525 0.406525
0.410583 0.410583 0.410583
0.362030 0.362030 0.362030
0.365631 0.365631 0.365631
0.362030 0.362030 0.362030
0.365631 0.365631 0.365631
0.384094 0.384094 0.384094
0.399323 0.399323 0.399323
0.410797 0.410797 0.410797
0.426270 0.426270 0.426270
0.442078 0.442078 0.442078
0.408142 0.408142 0.408142
0.427521 0.427521 0.427521
0.453003 0.453003 0.453003
0.473145 0.473145 0.473145
0.477203 0.477203 0.477203
0.460999 0.460999 0.460999
0.440948 0.440948 0.440948
0.474457 0.474457 0.474457
0.474457 0.474457 0.474457
0.462280 0.462280 0.462280
0.454010 0.454010 0.454010
0.445984 0.445984 0.445984
0.430237 0.430237 0.430237
0.410797 0.410797 0.410797
0.399323 0.399323 0.399323
0.403168 0.403168 0.403168
0.387787 0.387787 0.387787
0.384094 0.384094 0.384094
0.387787 0.387787 0.387787
0.376648 0.376648 0.376648
0.340637 0.340637 0.340637
0.333557 0.333557 0.333557
0.344208 0.344208 0.344208
0.387787 0.387787 0.387787
0.369202 0.369202 0.369202
0.380249 0.380249 0.380249
0.391541 0.391541 0.391541
0.399323 0.399323 0.399323
0.403168 0.403168 0.403168
0.410797 0.410797 0.410797
0.410797 0.410797 0.410797
0.406891 0.406891 0.406891
0.430237 0.430237 0.430237
0.442078 0.442078 0.442078
0.454010 0.454010 0.454010
0.466248 0.466248 0.466248
0.486633 0.486633 0.486633
0.511383 0.511383 0.511383
0.523804 0.523804 0.523804
0.316620 0.316620 0.316620
0.319885 0.319885 0.319885
0.323212 0.323212 0.323212
0.330048 0.330048 0.330048
0.340637 0.340637 0.340637
0.358368 0.358368 0.358368
0.384094 0.384094 0.384094
0.414642 0.414642 0.414642
0.434143 0.434143 0.434143
0.439026 0.439026 0.439026
0.450989 0.450989 0.450989
0.450989 0.450989 0.450989
0.446930 0.446930 0.446930
0.443024 0.443024 0.443024
0.443024 0.443024 0.443024
0.439026 0.439026 0.439026
0.328827 0.328827 0.328827
0.332245 0.332245 0.332245
0.325378 0.325378 0.325378
0.321960 0.321960 0.321960
0.325378 0.325378 0.325378
0.321960 0.321960 0.321960
0.321960 0.321960 0.321960
0.328827 0.328827 0.328827
0.342590 0.342590 0.342590
0.361481 0.361481 0.361481
0.383820 0.383820 0.383820
0.421875 0.421875 0.421875
0.461792 0.461792 0.461792
0.494598 0.494598 0.494598
0.527863 0.527863 0.527863
0.544556 0.544556 0.544556
0.596863 0.596863 0.596863
0.592743 0.592743 0.592743
0.583893 0.583893 0.583893
0.562683 0.562653 0.562683
0.529053 0.529053 0.529053
0.491486 0.491486 0.491486
0.454712 0.454681 0.454712
0.419281 0.419281 0.419281
0.396240 0.396240 0.396240
0.396240 0.396240 0.396240
0.366302 0.366302 0.366302
0.351868 0.351868 0.351868
0.366302 0.366302 0.366302
0.366302 0.366302 0.366302
0.362610 0.362610 0.362610
0.396240 0.396240 0.396240
0.433319 0.433319 0.433319
0.472321 0.472321 0.472321
0.428284 0.428284 0.428284
0.399567 0.399567 0.399567
0.407196 0.407196 0.407196
0.425568 0.425568 0.425568
0.445251 0.445251 0.445251
0.489929 0.489929 0.489929
0.531677 0.531677 0.531677
0.502563 0.502563 0.502563
0.481781 0.481781 0.481781
0.462769 0.462769 0.462769
0.450470 0.450470 0.450470
0.448975 0.448975 0.448975
0.437073 0.437073 0.437073
0.410797 0.410797 0.410797
0.446442 0.446442 0.446442
0.478668 0.478668 0.478668
0.474609 0.474609 0.474609
0.470581 0.470581 0.470581
0.466553 0.466522 0.466553
0.466553 0.466522 0.466553
0.466553 0.466522 0.466553
0.470581 0.470581 0.470581
0.470581 0.470581 0.470581
0.471558 0.471558 0.471558
0.471558 0.471558 0.471558
0.471558 0.471558 0.471558
0.471558 0.471558 0.471558
0.471558 0.471558 0.471558
0.471558 0.471558 0.471558
0.471558 0.471558 0.471558
0.449524 0.449493 0.449524
0.481995 0.481995 0.481995
0.481995 0.481995 0.481995
0.486145 0.486145 0.486145
0.481995 0.481995 0.481995
0.477905 0.477875 0.477905
0.469788 0.469788 0.469788
0.461487 0.461487 0.461487
0.457458 0.457458 0.457458
0.465851 0.465851 0.465851
0.465851 0.465851 0.465851
0.465851 0.465851 0.465851
0.469788 0.469788 0.469788
0.469788 0.469788 0.469788
0.473938 0.473938 0.473938
0.473938 0.473938 0.473938
0.544556 0.544556 0.544556
0.544037 0.544037 0.544037
0.535614 0.535614 0.535614
0.514740 0.514740 0.514740
0.493835 0.493835 0.493835
0.474609 0.474609 0.474609
0.458527 0.458527 0.458527
0.451172 0.451141 0.451172
0.443237 0.443237 0.443237
0.430237 0.430237 0.430237
0.406891 0.406891 0.406891
0.392487 0.392487 0.392487
0.399963 0.399963 0.399963
0.393799 0.393799 0.393799
0.378937 0.378937 0.378937
0.376862 0.376862 0.376862
0.483032 0.483032 0.483032
0.462555 0.462555 0.462555
0.503571 0.503571 0.503571
0.524414 0.524414 0.524414
0.528534 0.528534 0.528534
0.528534 0.528534 0.528534
0.516052 0.516052 0.516052
0.516052 0.516052 0.516052
0.537109 0.537109 0.537109
0.533020 0.533020 0.533020
0.533020 0.533020 0.533020
0.570953 0.570953 0.570953
0.605133 0.605133 0.605133
0.600861 0.600861 0.600861
0.605133 0.605133 0.605133
0.626434 0.626434 0.626434
0.595612 0.595612 0.595612
0.578674 0.578674 0.578674
0.561646 0.561646 0.561646
0.578857 0.578857 0.578857
0.578857 0.578857 0.578857
0.557739 0.557739 0.557739
0.574646 0.574646 0.574646
0.570435 0.570435 0.570435
0.511383 0.511383 0.511383
0.445465 0.445465 0.445465
0.515228 0.515228 0.515228
0.578339 0.578339 0.578339
0.599854 0.599854 0.599854
0.608856 0.608856 0.608856
0.621643 0.621643 0.621643
0.613098 0.613098 0.613098
0.536652 0.536652 0.536652
0.553467 0.553467 0.553467
0.549286 0.549286 0.549286
0.545044 0.545044 0.545044
0.540894 0.540894 0.540894
0.532501 0.532471 0.532501
0.528351 0.528351 0.528351
0.519684 0.519684 0.519684
0.515533 0.515533 0.515533
0.511383 0.511383 0.511383
0.515533 0.515533 0.515533
0.511383 0.511383 0.511383
0.494781 0.494781 0.494781
0.468811 0.468811 0.468811
0.432648 0.432648 0.432648
0.378937 0.378937 0.378937
0.514435 0.514435 0.514435
0.465027 0.465027 0.465027
0.460999 0.460999 0.460999
0.456940 0.456940 0.456940
0.448975 0.448975 0.448975
0.444977 0.444977 0.444977
0.448975 0.448975 0.448975
0.460999 0.460999 0.460999
0.469116 0.469116 0.469116
0.486328 0.486328 0.486328
0.494598 0.494598 0.494598
0.478180 0.478180 0.478180
0.461792 0.461792 0.461792
0.458923 0.458923 0.458923
0.435120 0.435120 0.435120
0.405731 0.405731 0.405731
0.500183 0.500183 0.500183
0.475586 0.475586 0.475586
0.471558 0.471558 0.471558
0.471558 0.471558 0.471558
0.475586 0.475586 0.475586
0.483826 0.483826 0.483826
0.483826 0.483826 0.483826
0.479645 0.479645 0.479645
0.475586 0.475586 0.475586
0.469421 0.469421 0.469421
0.477417 0.477417 0.477417
0.490692 0.490692 0.490692
0.503052 0.503052 0.503052
0.503052 0.503052 0.503052
0.494781 0.494781 0.494781
0.482513 0.482513 0.482513
0.390533 0.390533 0.390533
0.398102 0.398102 0.398102
0.398102 0.398102 0.398102
0.401855 0.401855 0.401855
0.394379 0.394379 0.394379
0.375397 0.375397 0.375397
0.390533 0.390533 0.390533
0.413422 0.413422 0.413422
0.413422 0.413422 0.413422
0.376373 0.376373 0.376373
0.372772 0.372772 0.372772
0.376373 0.376373 0.376373
0.387543 0.387543 0.387543
0.398804 0.398804 0.398804
0.395081 0.395081 0.395081
0.391235 0.391235 0.391235
0.354797 0.354797 0.354797
