app/src/main/assets/3dlut_02.cube
# Copyright 2012, Adobe Systems Inc.
# Created with ADBELUTBuilder Fri 30 Nov 2012 12:22:35
# Film Look FujiF125 Kodak2395
# Copyright 2012 Adobe Systems
LUT_3D_SIZE 21
DOMAIN_MIN 0.0 0.0 0.0
DOMAIN_MAX 1.0 1.0 1.0
0.14476 0.12001 0.10041
0.17767 0.12368 0.10062
0.23952 0.13134 0.10078
0.30731 0.13901 0.1002
0.38749 0.14634 0.0984
0.46593 0.15113 0.09534
0.53963 0.1531 0.09119
0.6055 0.15262 0.08659
0.65172 0.15076 0.08276
0.69372 0.1479 0.07904
0.73449 0.14396 0.075
0.76472 0.14015 0.07195
0.79081 0.13634 0.07023
0.81607 0.13207 0.06879
0.84052 0.12742 0.06765
0.85795 0.12415 0.06919
0.87087 0.12162 0.07125
0.88328 0.11899 0.07322
0.89542 0.11649 0.07567
0.90807 0.11453 0.07895
0.92036 0.11245 0.08212
0.1473 0.13404 0.10371
0.15182 0.13164 0.1033
0.17659 0.13348 0.10296
0.21123 0.13719 0.10286
0.25044 0.14167 0.10275
0.3001 0.1472 0.10227
0.35967 0.15312 0.10107
0.43384 0.15902 0.0987
0.5076 0.16282 0.09526
0.57904 0.16434 0.09078
0.63715 0.16392 0.08653
0.68146 0.16252 0.08281
0.72543 0.16021 0.0792
0.76376 0.15743 0.07671
0.79211 0.15499 0.07513
0.82029 0.15213 0.07335
0.84744 0.14904 0.07342
0.86884 0.14656 0.07431
0.8834 0.14519 0.07614
0.8976 0.14404 0.07805
0.91143 0.14305 0.0813
0.15043 0.16529 0.11023
0.15462 0.15845 0.10904
0.17268 0.15709 0.10831
0.2058 0.15961 0.10786
0.24535 0.16352 0.10736
0.28858 0.16799 0.10662
0.33899 0.17303 0.10556
0.40852 0.17945 0.10349
0.48153 0.1846 0.1003
0.55181 0.18774 0.09641
0.6203 0.18903 0.09181
0.66787 0.18868 0.08815
0.71094 0.18754 0.08482
0.75351 0.18565 0.08172
0.78605 0.18366 0.07945
0.81363 0.18163 0.07758
0.84095 0.17936 0.07718
0.86759 0.17686 0.07705
0.88644 0.17515 0.07799
0.90067 0.17404 0.07957
0.91446 0.17299 0.08221
0.15147 0.19711 0.11528
0.15548 0.18667 0.1139
0.17153 0.18501 0.1132
0.20444 0.18603 0.11246
0.24359 0.18873 0.11178
0.28368 0.19205 0.11105
0.33346 0.19656 0.10989
0.39573 0.20218 0.10792
0.46702 0.20769 0.10498
0.53643 0.21153 0.10131
0.60659 0.21379 0.09656
0.66218 0.21419 0.09211
0.70434 0.21349 0.08925
0.74614 0.21216 0.08606
0.78512 0.21027 0.0828
0.81173 0.20846 0.08099
0.8384 0.20642 0.0807
0.86479 0.20415 0.08034
0.88947 0.20182 0.08012
0.90455 0.20042 0.08132
0.91827 0.1993 0.08368
0.14836 0.23766 0.12024
0.15341 0.22519 0.119
0.16971 0.2211 0.11823
0.20235 0.21953 0.11734
0.24179 0.22005 0.11642
0.28144 0.22164 0.11543
0.32997 0.22482 0.11409
0.38644 0.22893 0.11239
0.45619 0.23403 0.1095
0.5258 0.23858 0.10572
0.59454 0.24206 0.10101
0.66008 0.24402 0.09632
0.70193 0.24406 0.09331
0.74328 0.24356 0.08996
0.78446 0.2425 0.08622
0.81448 0.2411 0.08462
0.84021 0.23959 0.08419
0.86651 0.23783 0.08356
0.89226 0.2359 0.08291
0.91191 0.23421 0.08313
0.92613 0.233 0.08541
0.13711 0.28791 0.1245
0.14595 0.27006 0.12364
0.16354 0.26326 0.12295
0.19781 0.25874 0.12188
0.23883 0.25752 0.12079
0.2795 0.25868 0.11991
0.32797 0.26173 0.11864
0.38137 0.26548 0.11681
0.45069 0.27114 0.11369
0.52096 0.27601 0.10983
0.58819 0.27946 0.10567
0.65705 0.28187 0.10041
0.70407 0.28213 0.09659
0.745 0.28161 0.09301
0.78534 0.28069 0.08977
0.82057 0.27928 0.08782
0.84595 0.2776 0.08714
0.87133 0.2758 0.08637
0.89684 0.27387 0.08548
0.92103 0.27189 0.08511
0.936 0.27023 0.08718
0.11286 0.34254 0.1271
0.12736 0.32386 0.12732
0.14833 0.31625 0.12697
0.18737 0.31065 0.12622
0.2327 0.30749 0.12516
0.27762 0.30647 0.12395
0.32597 0.30748 0.12242
0.37797 0.30927 0.12046
0.44671 0.31385 0.11761
0.51778 0.31818 0.11377
0.58476 0.32118 0.10932
0.65285 0.32344 0.10382
0.70861 0.32449 0.09873
0.74928 0.32449 0.09573
0.78922 0.32415 0.09306
0.82895 0.32347 0.09012
0.85505 0.32207 0.08904
0.87987 0.3206 0.08808
0.90529 0.319 0.08692
0.9301 0.31733 0.08705
0.94902 0.31577 0.08966
0.06947 0.39394 0.12814
0.09388 0.37611 0.12946
0.12106 0.36885 0.12965
0.16847 0.36349 0.12899
0.22073 0.36053 0.12786
0.27174 0.35917 0.12661
0.32186 0.35948 0.1254
0.37593 0.36095 0.12359
0.44318 0.36514 0.12048
0.51555 0.36986 0.11615
0.58444 0.37355 0.11111
0.6527 0.37649 0.10529
0.71627 0.37824 0.10009
0.7567 0.37762 0.09732
0.79654 0.37681 0.09432
0.836 0.3758 0.09107
0.86675 0.37409 0.08898
0.89142 0.37208 0.08781
0.91585 0.37003 0.08775
0.94088 0.3681 0.08956
0.9639 0.36619 0.09212
0 0.44619 0.12743
0.02955 0.42796 0.13008
0.07239 0.42015 0.13055
0.13881 0.41395 0.13031
0.20204 0.41009 0.12969
0.2608 0.40919 0.12858
0.31446 0.40998 0.12715
0.3711 0.41218 0.12503
0.43768 0.4168 0.12162
0.51209 0.4227 0.11674
0.58289 0.42771 0.11205
0.65139 0.43159 0.10668
0.72052 0.43444 0.10024
0.76432 0.43426 0.09662
0.80454 0.43369 0.09316
0.8442 0.43297 0.08944
0.8796 0.43178 0.08631
0.90444 0.42983 0.087
0.92894 0.42807 0.08906
0.95407 0.42627 0.09102
0.97881 0.4245 0.0931
0 0.4907 0.12608
0 0.47586 0.12925
0 0.4695 0.13074
0.08673 0.46477 0.13084
0.17354 0.46036 0.13024
0.2442 0.45907 0.12894
0.30306 0.45937 0.12731
0.36298 0.46136 0.12508
0.42943 0.46545 0.12245
0.50501 0.47148 0.1181
0.57842 0.47703 0.11283
0.64774 0.48153 0.10693
0.71754 0.48563 0.09978
0.76956 0.48713 0.09439
0.81037 0.48731 0.09033
0.85041 0.48741 0.08747
0.89017 0.48749 0.08618
0.91614 0.48619 0.0877
0.94099 0.48488 0.08949
0.96589 0.48359 0.0913
0.99092 0.48228 0.09312
0 0.53382 0.12356
0 0.51918 0.12844
0 0.51256 0.13021
0.00394 0.5073 0.13047
0.13495 0.50424 0.12973
0.22174 0.50473 0.12846
0.28672 0.50634 0.12749
0.35047 0.50977 0.12569
0.41822 0.51412 0.12279
0.49603 0.52023 0.11799
0.57256 0.52623 0.112
0.6429 0.53098 0.10551
0.7134 0.53544 0.09768
0.77316 0.53818 0.09217
0.81437 0.53864 0.09071
0.85487 0.53899 0.0892
0.89484 0.53922 0.08763
0.92532 0.53835 0.08805
0.95037 0.537 0.08969
0.97493 0.53569 0.09146
1.00011 0.53437 0.09311
0 0.57578 0.12027
0 0.56232 0.12632
0 0.55542 0.12838
0 0.54978 0.12928
0.07141 0.54623 0.12969
0.19189 0.54642 0.12895
0.26641 0.54763 0.12789
0.33535 0.55092 0.1259
0.40461 0.55554 0.1228
0.48492 0.56334 0.11754
0.56435 0.57131 0.1115
0.63656 0.57793 0.10574
0.70791 0.58416 0.09971
0.77533 0.58935 0.09326
0.81744 0.59058 0.0913
0.85842 0.59099 0.08952
0.8987 0.59131 0.08767
0.93354 0.59092 0.08696
0.95883 0.58947 0.0885
0.98352 0.58809 0.09018
1.00847 0.58675 0.09254
0 0.60769 0.11837
0 0.59757 0.1241
0 0.593 0.12747
0 0.5902 0.12892
0 0.58848 0.12907
0.14956 0.58821 0.12831
0.24024 0.58913 0.12783
0.31663 0.59242 0.12646
0.38862 0.59665 0.1241
0.47187 0.60464 0.12001
0.55335 0.61284 0.11506
0.62795 0.61988 0.10971
0.70026 0.62635 0.1035
0.77234 0.63246 0.09605
0.81779 0.6344 0.09321
0.85942 0.63591 0.09087
0.90028 0.6373 0.08846
0.93946 0.6384 0.08622
0.96523 0.63778 0.08757
0.9903 0.63721 0.09013
1.0152 0.63667 0.09276
0 0.63897 0.11572
0 0.62939 0.12365
0 0.62474 0.12743
0 0.62195 0.12991
0 0.62164 0.13076
0.0885 0.62449 0.13027
0.20733 0.62798 0.12942
0.29368 0.63386 0.12852
0.36982 0.63843 0.12735
0.45608 0.64623 0.1237
0.54077 0.6546 0.11853
0.61839 0.66204 0.11282
0.69194 0.6687 0.1064
0.76483 0.67507 0.09871
0.81738 0.67803 0.09427
0.85949 0.67958 0.09172
0.90074 0.68104 0.08913
0.94125 0.68241 0.08754
0.96979 0.68212 0.08913
0.99509 0.6815 0.09159
1.01979 0.68091 0.09421
0 0.6697 0.11309
0 0.66081 0.12373
0 0.65645 0.12938
0 0.65355 0.13217
0 0.65309 0.13312
0 0.65581 0.13385
0.16825 0.65919 0.13437
0.26977 0.6651 0.13365
0.3514 0.67153 0.13213
0.43904 0.68131 0.1282
0.52675 0.69219 0.12235
0.6077 0.70226 0.11565
0.68274 0.71101 0.10841
0.75668 0.71759 0.10045
0.81617 0.7216 0.09445
0.85868 0.72322 0.09282
0.90026 0.72475 0.09118
0.94108 0.72618 0.08952
0.97362 0.7264 0.09
0.99918 0.72571 0.09239
1.02429 0.72526 0.09694
0 0.69448 0.11317
0 0.68993 0.12571
0 0.68749 0.13107
0 0.68461 0.13496
0 0.68422 0.1375
0 0.68671 0.13856
0.11519 0.6901 0.1391
0.24117 0.6958 0.13848
0.33093 0.7022 0.13701
0.42144 0.71159 0.13333
0.5119 0.72256 0.12757
0.59594 0.73303 0.12073
0.67203 0.74216 0.1137
0.74671 0.75099 0.10613
0.81293 0.75806 0.09904
0.8562 0.76141 0.09667
0.89846 0.7646 0.09425
0.9399 0.76764 0.09201
0.97683 0.77016 0.0937
1.00307 0.77043 0.09875
1.02853 0.77001 0.10429
0 0.71569 0.117
0 0.71136 0.12903
0 0.7096 0.13624
0 0.70967 0.14027
0 0.71264 0.14223
0 0.71701 0.14299
0.02096 0.72038 0.14355
0.20596 0.72587 0.14303
0.3075 0.73221 0.14164
0.40214 0.7412 0.13821
0.4959 0.75224 0.13292
0.58312 0.76312 0.12687
0.66033 0.77242 0.12074
0.73591 0.78144 0.11342
0.80756 0.78956 0.10545
0.85248 0.79332 0.10486
0.89529 0.79687 0.10516
0.93724 0.80025 0.10561
0.97779 0.80337 0.10638
1.00435 0.80429 0.11089
1.03025 0.80519 0.11561
0 0.73633 0.1207
0 0.7326 0.13471
0 0.73086 0.14202
0 0.73088 0.14609
0 0.73377 0.14816
0 0.73913 0.14883
0 0.74551 0.14878
0.16237 0.75345 0.14779
0.27998 0.76185 0.14646
0.38019 0.77048 0.14414
0.47818 0.78159 0.13947
0.56881 0.79273 0.13351
0.64816 0.80249 0.12897
0.72493 0.81195 0.12415
0.80037 0.82106 0.11841
0.84863 0.82535 0.1179
0.89186 0.82895 0.11835
0.93415 0.83239 0.11891
0.97573 0.83569 0.11958
1.00501 0.837 0.12328
1.03109 0.83789 0.12795
0 0.7567 0.12568
0 0.75333 0.14046
0 0.75159 0.14766
0 0.75158 0.15177
0 0.7544 0.15394
0 0.7596 0.15475
0 0.76606 0.15522
0.11058 0.77389 0.15525
0.2529 0.78273 0.15435
0.35777 0.79365 0.15302
0.45969 0.80748 0.1499
0.55319 0.82136 0.14558
0.63544 0.83283 0.14148
0.71357 0.84243 0.13719
0.78992 0.8517 0.13209
0.8443 0.85698 0.13068
0.88797 0.86062 0.13127
0.93064 0.86412 0.13195
0.97247 0.86748 0.13291
1.00518 0.86934 0.13616
1.03146 0.87023 0.14091
0 0.77656 0.13215
0 0.77392 0.14604
0 0.77213 0.15315
0 0.77205 0.15728
0 0.7748 0.1598
0 0.77991 0.16163
0 0.78649 0.16312
0.02081 0.79447 0.16522
0.22048 0.80354 0.16641
0.33401 0.81413 0.16628
0.44119 0.82795 0.16379
0.53776 0.84191 0.16014
0.62258 0.85455 0.15629
0.70174 0.86635 0.15199
0.77894 0.87775 0.14688
0.83932 0.88589 0.14409
0.88355 0.89127 0.14444
0.92666 0.89551 0.14537
0.96876 0.89893 0.14665
1.00488 0.90132 0.14918
1.03138 0.90218 0.1538
0 0.79012 0.13999
0 0.78923 0.15265
0 0.78938 0.15916
0 0.79188 0.16354
0 0.79546 0.16783
0 0.80082 0.1718
0 0.80767 0.17484
0 0.81549 0.17724
0.18018 0.8245 0.17876
0.30765 0.8347 0.17917
0.42161 0.84849 0.17724
0.52183 0.86251 0.17417
0.60958 0.87541 0.1708
0.68982 0.88728 0.16715
0.7677 0.89879 0.16305
0.83363 0.90793 0.16021
0.87816 0.91334 0.16091
0.92161 0.91854 0.16168
0.96412 0.92353 0.16253
1.00358 0.92793 0.16394
1.03044 0.93018 0.16792
0.14394 0.12172 0.11538
0.1846 0.12729 0.12683
0.24308 0.13464 0.13253
0.30731 0.14188 0.13602
0.37503 0.14792 0.13511
0.45216 0.15283 0.13349
0.52437 0.15512 0.13131
0.58786 0.15514 0.12903
0.64238 0.15342 0.12691
0.68381 0.15089 0.12545
0.72399 0.14736 0.12415
0.76276 0.14284 0.12302
0.78899 0.13912 0.12301
0.81426 0.13496 0.12328
0.83867 0.13042 0.12384
0.86021 0.12626 0.12496
0.87627 0.12295 0.12677
0.8889 0.12022 0.12907
0.90116 0.11747 0.13159
0.91411 0.11535 0.13442
0.92669 0.11312 0.13747
0.14658 0.13128 0.10727
0.15336 0.13064 0.11013
0.18035 0.13305 0.11162
0.21419 0.13686 0.11318
0.25159 0.14124 0.11461
0.30068 0.14678 0.11575
0.35841 0.15256 0.11635
0.43041 0.15835 0.11604
0.50238 0.16221 0.11514
0.57002 0.16394 0.11393
0.63143 0.16379 0.11242
0.6746 0.16269 0.11167
0.71754 0.16075 0.11161
0.75996 0.1579 0.11176
0.78989 0.15551 0.11291
0.81808 0.15285 0.11434
0.84552 0.14989 0.1165
0.87105 0.14685 0.11893
0.8874 0.14527 0.12237
0.90193 0.14402 0.12607
0.91617 0.14302 0.12992
0.14979 0.15864 0.11241
0.15484 0.15482 0.11467
0.17641 0.1554 0.1153
0.20789 0.158 0.11625
0.24636 0.16199 0.11749
0.28903 0.16653 0.1185
0.33829 0.17154 0.11912
0.40563 0.17778 0.11897
0.47723 0.18291 0.1179
0.54564 0.18609 0.11613
0.61085 0.18754 0.11444
0.66165 0.18744 0.11318
0.70365 0.18653 0.11233
0.74564 0.18496 0.1125
0.78331 0.1829 0.11296
0.81105 0.18108 0.11433
0.83864 0.17895 0.11575
0.86562 0.1766 0.11785
0.88949 0.17441 0.12056
0.90422 0.17348 0.12432
0.91848 0.17251 0.12819
0.15115 0.18757 0.11726
0.15598 0.18337 0.11949
0.17364 0.18207 0.11993
0.20644 0.18341 0.1203
0.24445 0.18624 0.12128
0.28353 0.18959 0.1221
0.33239 0.19409 0.12254
0.39279 0.19956 0.12238
0.46225 0.20497 0.12132
0.5306 0.20883 0.11951
0.59866 0.21114 0.1172
0.65611 0.21179 0.11539
0.69736 0.21124 0.11441
0.7386 0.21018 0.1145
0.77952 0.20849 0.11454
0.80873 0.20679 0.11566
0.83584 0.20489 0.117
0.86257 0.2028 0.11847
0.88875 0.20059 0.12079
0.9074 0.199 0.12402
0.92155 0.19795 0.12784
0.14906 0.22753 0.12263
0.15414 0.21994 0.12475
0.17105 0.21621 0.125
0.20432 0.21505 0.12505
0.24265 0.21581 0.12569
0.28057 0.21744 0.12625
0.32833 0.22065 0.12647
0.38309 0.22483 0.12622
0.45151 0.23099 0.12513
0.52022 0.23596 0.12327
0.58715 0.23944 0.12086
0.65143 0.24152 0.11847
0.69554 0.24184 0.11752
0.73632 0.24159 0.11754
0.7769 0.24079 0.11748
0.81179 0.23955 0.11791
0.83792 0.23821 0.11924
0.86453 0.23661 0.12054
0.89058 0.23487 0.12249
0.91474 0.23307 0.12499
0.9293 0.23202 0.12867
0.14024 0.27451 0.12749
0.14706 0.26281 0.12974
0.16571 0.25633 0.12991
0.20006 0.25308 0.13007
0.23966 0.25321 0.13059
0.27872 0.25445 0.13101
0.3263 0.25754 0.13109
0.37752 0.26115 0.13076
0.44549 0.26674 0.12942
0.51481 0.27163 0.12729
0.58061 0.27506 0.12487
0.64727 0.27749 0.12211
0.69739 0.27823 0.12131
0.7377 0.27793 0.12119
0.77769 0.27723 0.12101
0.81744 0.27611 0.12077
0.84313 0.27462 0.12199
0.86889 0.273 0.12325
0.89467 0.27125 0.125
0.91997 0.26946 0.12723
0.93854 0.26789 0.1303
0.11865 0.32969 0.13152
0.12887 0.31668 0.1342
0.15169 0.30925 0.13466
0.19039 0.3042 0.13524
0.23379 0.3014 0.13554
0.27672 0.30053 0.1357
0.3239 0.30156 0.13557
0.37439 0.30333 0.13501
0.44117 0.30772 0.13344
0.51078 0.31199 0.13104
0.57679 0.31512 0.12887
0.64368 0.31863 0.12698
0.70216 0.32067 0.1253
0.74251 0.3209 0.12502
0.78238 0.3208 0.12469
0.82208 0.32036 0.1243
0.85262 0.31935 0.12486
0.87772 0.3181 0.12608
0.90348 0.31673 0.12785
0.92874 0.3153 0.12995
0.95137 0.31383 0.13245
0.07929 0.38257 0.13383
0.09634 0.36979 0.13697
0.12561 0.36272 0.13842
0.17211 0.35788 0.13917
0.22201 0.35456 0.13948
0.27084 0.35305 0.13951
0.31928 0.35337 0.13927
0.3727 0.35489 0.13848
0.4378 0.35884 0.13672
0.50846 0.36354 0.13511
0.57647 0.3674 0.1335
0.64326 0.37043 0.13138
0.70905 0.37274 0.1288
0.75007 0.37246 0.1283
0.7898 0.37192 0.12783
0.82921 0.37118 0.12731
0.86409 0.36998 0.12724
0.88899 0.36824 0.12854
0.91391 0.36648 0.13052
0.93898 0.36468 0.13255
0.96359 0.36289 0.1347
0.00516 0.4354 0.13451
0.03388 0.4218 0.13856
0.07989 0.41416 0.14083
0.14353 0.40848 0.14175
0.20357 0.40493 0.14208
0.26002 0.40412 0.142
0.31191 0.40486 0.14163
0.36796 0.40719 0.14116
0.43215 0.41165 0.14067
0.50492 0.41754 0.13921
0.57545 0.42241 0.13722
0.64299 0.42589 0.13483
0.7113 0.42891 0.13174
0.7584 0.42944 0.13047
0.79849 0.42912 0.12983
0.83807 0.42867 0.12913
0.87739 0.42805 0.12835
0.90243 0.42632 0.13013
0.92691 0.42466 0.13215
0.95207 0.42295 0.13411
0.97677 0.42127 0.1362
0 0.48268 0.13392
0 0.47137 0.1394
0 0.46519 0.14194
0.09418 0.45984 0.14302
0.17555 0.45544 0.14353
0.24344 0.45439 0.144
0.30022 0.45476 0.14422
0.35936 0.45694 0.14475
0.42356 0.46087 0.14444
0.49849 0.46696 0.14274
0.57172 0.47268 0.14038
0.64032 0.47728 0.13769
0.70938 0.48149 0.13426
0.76447 0.48368 0.13187
0.80515 0.48407 0.13099
0.8452 0.48434 0.13005
0.88482 0.48447 0.12968
0.91431 0.4836 0.13089
0.93911 0.48237 0.13283
0.96405 0.48114 0.13478
0.98904 0.47991 0.13678
0 0.5264 0.13228
0 0.51495 0.13946
0 0.50851 0.14243
0.01158 0.5039 0.1445
0.1356 0.50123 0.1456
0.22 0.5019 0.14623
0.28311 0.5036 0.14736
0.34678 0.50684 0.14776
0.41254 0.51019 0.14744
0.48983 0.51637 0.14554
0.5662 0.52253 0.1428
0.63598 0.52738 0.13986
0.70582 0.53194 0.13616
0.76847 0.53521 0.13265
0.80961 0.53569 0.13162
0.84993 0.53608 0.13125
0.88973 0.53637 0.13093
0.92344 0.53593 0.13147
0.94844 0.53465 0.13338
0.97303 0.53341 0.13538
0.99816 0.53216 0.13734
0 0.56996 0.13054
0 0.55848 0.13901
0 0.55209 0.14359
0 0.54701 0.14591
0.07038 0.54384 0.14785
0.18926 0.54434 0.14928
0.26214 0.54564 0.15045
0.33123 0.54911 0.15079
0.3987 0.55356 0.15037
0.47875 0.56136 0.14814
0.55753 0.56921 0.14496
0.63001 0.57586 0.14146
0.70108 0.582 0.13726
0.7713 0.58726 0.13259
0.81287 0.58777 0.13221
0.85364 0.58821 0.13181
0.89374 0.58858 0.13137
0.93158 0.58863 0.13121
0.95682 0.58725 0.13312
0.98153 0.58599 0.13565
1.00688 0.58495 0.13986
0 0.60362 0.12973
0 0.59608 0.13984
0 0.59203 0.14441
0 0.58982 0.14772
0 0.58685 0.1503
0.14464 0.58688 0.15183
0.23469 0.58777 0.15306
0.31177 0.59108 0.15339
0.38215 0.59499 0.15305
0.46562 0.60286 0.15066
0.54698 0.6109 0.14725
0.62204 0.61795 0.14342
0.69393 0.62433 0.13962
0.7655 0.63038 0.13516
0.81356 0.63282 0.13362
0.85499 0.63435 0.13289
0.89566 0.63575 0.13214
0.93589 0.63704 0.13133
0.96367 0.63694 0.13486
0.98905 0.63664 0.13894
1.01434 0.63636 0.14312
0 0.63569 0.12981
0 0.62847 0.14091
0 0.62456 0.14713
0 0.62214 0.15094
0 0.62204 0.15325
0.0758 0.62496 0.15446
0.19889 0.62834 0.15539
0.28736 0.63331 0.15545
0.3649 0.63716 0.15502
0.45033 0.64459 0.15266
0.53486 0.65282 0.14932
0.61269 0.66027 0.14592
0.68582 0.66685 0.14211
0.75824 0.67315 0.13749
0.8132 0.67658 0.13485
0.85511 0.67815 0.13403
0.8964 0.67989 0.13523
0.93713 0.68152 0.13652
0.96873 0.68187 0.13949
0.99432 0.68152 0.1436
1.01936 0.68119 0.14787
0 0.66739 0.13063
0 0.6605 0.14315
0 0.65658 0.15002
0 0.65396 0.15401
0 0.65373 0.15642
0 0.6564 0.15772
0.1594 0.65967 0.15867
0.26308 0.66535 0.15861
0.3463 0.67172 0.15784
0.43301 0.68115 0.15592
0.52083 0.69192 0.15242
0.60207 0.70199 0.14826
0.67672 0.70933 0.14417
0.75025 0.71591 0.13985
0.81219 0.72064 0.13806
0.85485 0.72251 0.13927
0.89662 0.72429 0.14053
0.93768 0.72597 0.14186
0.97301 0.72681 0.14423
0.99886 0.72638 0.14838
1.02408 0.726 0.15279
0 0.69454 0.13201
0 0.69117 0.14589
0 0.68791 0.15279
0 0.68517 0.15694
0 0.68483 0.15947
0 0.6873 0.16086
0.10327 0.69058 0.16179
0.2339 0.69614 0.1623
0.32541 0.70253 0.16223
0.41514 0.7116 0.16051
0.5059 0.72246 0.15705
0.5903 0.7331 0.15397
0.66628 0.74241 0.15136
0.74101 0.7514 0.14806
0.80974 0.7591 0.14495
0.85315 0.76267 0.14575
0.89563 0.76608 0.14662
0.9373 0.76933 0.14757
0.97649 0.77171 0.14906
1.00261 0.77122 0.15356
1.02807 0.77079 0.15825
0 0.71607 0.13653
0 0.71286 0.15014
0 0.71123 0.15676
0 0.71142 0.16049
0 0.71443 0.16256
0 0.7176 0.16408
0.00075 0.72094 0.16581
0.19701 0.72632 0.16663
0.30127 0.73269 0.16687
0.39526 0.74168 0.167
0.48968 0.7529 0.16536
0.5777 0.76401 0.16287
0.65514 0.77347 0.16051
0.73087 0.78265 0.15747
0.80506 0.79137 0.15384
0.84981 0.79509 0.15458
0.89267 0.79857 0.15552
0.93463 0.8019 0.1567
0.97602 0.80511 0.15809
1.00389 0.8062 0.16197
1.0298 0.80708 0.16624
0 0.73708 0.14135
0 0.73399 0.15447
0 0.73235 0.16105
0 0.73251 0.16483
0 0.73553 0.16755
0 0.74094 0.1694
0 0.74739 0.17132
0.14737 0.75555 0.17353
0.27197 0.76319 0.17517
0.37274 0.77179 0.17567
0.47199 0.78307 0.17429
0.56316 0.79434 0.17204
0.64331 0.80413 0.16982
0.72025 0.81347 0.16705
0.79576 0.82246 0.16363
0.84597 0.82705 0.1638
0.88921 0.83061 0.16514
0.93151 0.83402 0.16654
0.9731 0.83728 0.168
1.00436 0.83888 0.17128
1.03046 0.83974 0.1755
0 0.75759 0.14622
0 0.75459 0.15885
0 0.75296 0.1654
0 0.75323 0.17008
0 0.75638 0.17391
0 0.76203 0.17779
0 0.76874 0.18095
0.08534 0.77674 0.18342
0.24243 0.78583 0.18504
0.34941 0.79654 0.18546
0.45327 0.81024 0.18392
0.54759 0.82395 0.18142
0.63076 0.83442 0.17925
0.70907 0.84391 0.17682
0.78546 0.85309 0.17401
0.84159 0.85866 0.1737
0.88529 0.86227 0.17513
0.92796 0.86573 0.17662
0.96981 0.86905 0.17816
1.00439 0.87116 0.18091
1.03069 0.872 0.1851
0 0.77804 0.15105
0 0.77506 0.16327
0 0.77359 0.17104
0 0.77427 0.17802
0 0.7776 0.18327
0 0.78306 0.18735
0 0.78976 0.19068
0 0.79755 0.1934
0.20863 0.80656 0.19529
0.3255 0.81689 0.19613
0.43491 0.83058 0.19499
0.53236 0.84439 0.19292
0.61794 0.85699 0.19089
0.69732 0.86871 0.18854
0.77461 0.88002 0.18558
0.83663 0.88842 0.18419
0.8809 0.89356 0.18532
0.92399 0.89707 0.1869
0.96614 0.90044 0.18852
1.00396 0.90306 0.1908
1.03049 0.90388 0.19497
0 0.79179 0.1573
0 0.79148 0.17067
0 0.79256 0.18071
0 0.79545 0.18731
0 0.79872 0.19269
0 0.80405 0.19696
0 0.81077 0.20046
0 0.81842 0.20341
0.166 0.82737 0.20554
0.29885 0.83732 0.20678
0.4153 0.85101 0.20628
0.51644 0.86492 0.20484
0.60497 0.87778 0.20311
0.68547 0.88956 0.20118
0.7635 0.90097 0.19867
0.83098 0.91031 0.1969
0.87557 0.91566 0.19812
0.91907 0.92081 0.19937
0.96162 0.92574 0.20067
1.00266 0.93034 0.20215
1.02955 0.93255 0.20589
0.14202 0.12571 0.15306
0.18848 0.13207 0.17435
0.24533 0.13894 0.18526
0.29978 0.14462 0.18659
0.36281 0.15011 0.1866
0.43892 0.15504 0.18606
0.512 0.15759 0.18477
0.57488 0.15786 0.1832
0.63709 0.15616 0.1814
0.6786 0.15368 0.18002
0.71887 0.15024 0.17883
0.75877 0.1457 0.17779
0.79052 0.14123 0.17732
0.81597 0.13697 0.17739
0.84045 0.13235 0.17782
0.86218 0.12809 0.17884
0.88291 0.12357 0.18019
0.89562 0.12068 0.18226
