app/src/main/assets/3dlut_02.cube
# Copyright 2012, Adobe Systems Inc.
# Created with ADBELUTBuilder Fri 30 Nov 2012 12:22:35
# Film Look FujiF125 Kodak2395
# Copyright 2012 Adobe Systems
LUT_3D_SIZE 6
DOMAIN_MIN 0.0 0.0 0.0
DOMAIN_MAX 1.0 1.0 1.0
0.14476 0.12001 0.10041
0.38749 0.14634 0.0984
0.65172 0.15076 0.08276
0.79081 0.13634 0.07023
0.87087 0.12162 0.07125
0.92036 0.11245 0.08212
0.14836 0.23766 0.12024
0.24179 0.22005 0.11642
0.45619 0.23403 0.1095
0.70193 0.24406 0.09331
0.84021 0.23959 0.08419
0.92613 0.233 0.08541
0 0.44619 0.12743
0.20204 0.41009 0.12969
0.43768 0.4168 0.12162
0.72052 0.43444 0.10024
0.8796 0.43178 0.08631
0.97881 0.4245 0.0931
0 0.60769 0.11837
0 0.58848 0.12907
0.38862 0.59665 0.1241
0.70026 0.62635 0.1035
0.90028 0.6373 0.08846
1.0152 0.63667 0.09276
0 0.71569 0.117
0 0.71264 0.14223
0.3075 0.73221 0.14164
0.66033 0.77242 0.12074
0.89529 0.79687 0.10516
1.03025 0.80519 0.11561
0 0.79012 0.13999
0 0.79546 0.16783
0.18018 0.8245 0.17876
0.60958 0.87541 0.1708
0.87816 0.91334 0.16091
1.03044 0.93018 0.16792
0.14101 0.13316 0.26758
0.3503 0.15213 0.3005
0.62272 0.15843 0.30349
0.79567 0.14178 0.29957
0.88916 0.12295 0.29963
0.94606 0.10941 0.30655
0.14158 0.22154 0.16853
0.23998 0.21544 0.19417
0.43894 0.23205 0.2133
0.68846 0.24319 0.22675
0.84059 0.23908 0.23873
0.94131 0.23193 0.25674
0 0.42267 0.18403
0.1988 0.40181 0.21012
0.4185 0.40779 0.22629
0.693 0.4231 0.23604
0.86696 0.42366 0.24592
0.9765 0.41814 0.2603
0 0.60152 0.18985
0 0.5874 0.22348
0.36841 0.59616 0.24051
0.67936 0.62454 0.24855
0.88745 0.63723 0.25639
1.01394 0.63877 0.27458
0 0.72101 0.2036
0 0.7217 0.23881
0.27873 0.73961 0.25688
0.64198 0.77852 0.26434
0.88509 0.8047 0.27778
1.02861 0.81445 0.29717
0 0.80164 0.22752
0 0.80827 0.26228
0.11226 0.8369 0.2852
0.59146 0.88706 0.30175
0.86842 0.9257 0.31471
1.02785 0.94375 0.33391
0.17444 0.12895 0.47903
0.34925 0.13821 0.51794
0.60121 0.13996 0.54284
0.78427 0.12009 0.55052
0.89023 0.09412 0.55207
0.95706 0.07159 0.55456
0.12738 0.22576 0.32774
0.24483 0.22357 0.37027
0.44209 0.23622 0.40923
0.68628 0.2432 0.44341
0.84831 0.23607 0.46909
0.94843 0.22615 0.49131
0 0.42397 0.33755
0.19023 0.40951 0.37659
0.41214 0.41214 0.41214
0.6806 0.42392 0.44251
0.86042 0.42352 0.46677
0.97797 0.41704 0.4884
0 0.61239 0.34815
0 0.60002 0.3885
0.34793 0.60847 0.424
0.66593 0.63422 0.45478
0.87844 0.64608 0.47908
1.01183 0.64413 0.50118
0 0.74087 0.3596
0 0.74061 0.40093
0.23185 0.7585 0.43707
0.62415 0.7951 0.46706
0.8732 0.81934 0.49127
1.02366 0.82841 0.51409
0 0.825 0.37816
0 0.8325 0.41903
0 0.86019 0.45517
0.56964 0.90683 0.48455
0.85437 0.94339 0.50884
1.02013 0.95812 0.53198
0.22568 0.10954 0.6207
0.37344 0.11258 0.65503
0.59371 0.10664 0.68702
0.77293 0.07765 0.70393
0.88371 0.03531 0.71092
0.9567 0.00285 0.71582
0.15538 0.22115 0.5164
0.26744 0.22161 0.54838
0.46322 0.22948 0.58836
0.68915 0.23092 0.62462
0.84679 0.22055 0.6502
0.94664 0.20801 0.67023
0 0.42174 0.52765
0.19897 0.41252 0.56452
0.42524 0.41251 0.59976
0.67867 0.41932 0.63286
0.85475 0.41644 0.6571
0.97403 0.40832 0.67617
0 0.61678 0.53929
0 0.61133 0.57604
0.34783 0.61885 0.61732
0.66282 0.63982 0.65217
0.86938 0.64612 0.67717
1.00534 0.64289 0.69651
0 0.75691 0.54678
0 0.75935 0.58347
0.1984 0.77489 0.62423
0.61574 0.80777 0.66207
0.86151 0.82863 0.68867
1.01469 0.83363 0.7092
0 0.84568 0.55547
0 0.857 0.5918
0 0.88155 0.63234
0.55613 0.92459 0.6701
0.84056 0.95687 0.69694
1.00965 0.96681 0.71825
0.28693 0.08754 0.71152
0.41739 0.08569 0.74193
0.6024 0.07088 0.77363
0.76878 0.02749 0.79441
0.87994 0 0.80641
0.95536 0 0.81381
0.21127 0.21282 0.65461
0.3153 0.21319 0.68087
0.50063 0.21729 0.71718
0.70304 0.21406 0.75011
0.84998 0.20105 0.77294
0.94537 0.18684 0.7896
0.04641 0.41379 0.67323
0.2494 0.40714 0.69925
0.46103 0.40761 0.73626
0.69002 0.41053 0.76922
0.85502 0.40556 0.79134
0.97159 0.39629 0.80791
0 0.61593 0.6941
0 0.61388 0.71957
0.3874 0.62252 0.75494
0.67407 0.63809 0.79321
0.86756 0.64101 0.82068
1.0011 0.63679 0.83758
0 0.76559 0.70451
0 0.76924 0.72995
0.24546 0.78469 0.76416
0.62823 0.81342 0.80208
0.85795 0.83055 0.83255
1.0087 0.83186 0.85464
0 0.86334 0.71034
0 0.87345 0.73559
0 0.89565 0.76881
0.56669 0.93535 0.80648
0.83557 0.96044 0.83693
1.00228 0.9695 0.86118
0.35448 0.06571 0.77692
0.46925 0.0602 0.80001
0.62461 0.03892 0.82559
0.77459 0 0.8458
0.87911 0 0.85805
0.95592 0 0.86777
0.27941 0.20398 0.74948
0.37285 0.20402 0.77236
0.54516 0.20499 0.80722
0.72242 0.19774 0.83819
0.85959 0.18297 0.85658
0.94723 0.1683 0.86921
0.18809 0.40406 0.78044
0.31999 0.40041 0.79937
0.51257 0.40157 0.82931
0.71255 0.4017 0.8592
0.86183 0.39507 0.88152
0.97278 0.38496 0.89875
0 0.61399 0.81121
0.15338 0.61467 0.83023
0.44837 0.62374 0.85985
0.69658 0.63306 0.89038
0.87303 0.63391 0.91347
1.0007 0.62912 0.93115
0 0.77138 0.82674
0 0.77643 0.84543
0.33428 0.79231 0.87424
0.65634 0.81609 0.90668
0.8626 0.8263 0.93121
1.00741 0.8266 0.94961
0 0.8771 0.83385
0 0.88669 0.85217
0.12442 0.90927 0.88027
0.59776 0.94233 0.91269
0.83948 0.96027 0.93816
1. 0.96786 0.95781
